apps/64/distributor-logo-ubuntu-studio.svg

<?xml version="1.0" encoding="UTF-8" standalone="no"?>
<!-- Created with Inkscape (http://www.inkscape.org/) -->

<svg
   xmlns:dc="http://purl.org/dc/elements/1.1/"
   xmlns:cc="http://creativecommons.org/ns#"
   xmlns:rdf="http://www.w3.org/1999/02/22-rdf-syntax-ns#"
   xmlns:svg="http://www.w3.org/2000/svg"
   xmlns="http://www.w3.org/2000/svg"
   xmlns:sodipodi="http://sodipodi.sourceforge.net/DTD/sodipodi-0.dtd"
   xmlns:inkscape="http://www.inkscape.org/namespaces/inkscape"
   width="64"
   height="64"
   id="svg13094"
   version="1.1"
   inkscape:version="0.48.4 r9939"
   sodipodi:docname="distributor-logo-ubuntu-studio.svg">
  <sodipodi:namedview
     id="base"
     pagecolor="#ffffff"
     bordercolor="#666666"
     borderopacity="1.0"
     inkscape:pageopacity="0"
     inkscape:pageshadow="2"
     inkscape:zoom="11.313709"
     inkscape:cx="33.775193"
     inkscape:cy="32.677024"
     inkscape:document-units="px"
     inkscape:current-layer="svg13094"
     showgrid="true"
     inkscape:snap-bbox="true"
     inkscape:bbox-paths="true"
     inkscape:bbox-nodes="true"
     inkscape:snap-bbox-edge-midpoints="true"
     inkscape:snap-bbox-midpoints="true"
     inkscape:object-paths="true"
     inkscape:snap-intersection-paths="true"
     inkscape:object-nodes="true"
     inkscape:snap-smooth-nodes="true"
     inkscape:snap-midpoints="true"
     inkscape:snap-object-midpoints="true"
     inkscape:snap-center="true"
     showguides="true"
     inkscape:guide-bbox="true"
     inkscape:window-width="1920"
     inkscape:window-height="1022"
     inkscape:window-x="-5"
     inkscape:window-y="23"
     inkscape:window-maximized="1"
     inkscape:snap-global="true"
     fit-margin-top="0"
     fit-margin-left="0"
     fit-margin-right="0"
     fit-margin-bottom="0"
     showborder="true"
     inkscape:showpageshadow="false"
     inkscape:snap-page="true">
    <inkscape:grid
       type="xygrid"
       id="grid3075"
       empspacing="5"
       visible="true"
       enabled="true"
       snapvisiblegridlinesonly="true"
       originx="1.6362304e-08px"
       originy="18px" />
  </sodipodi:namedview>
  <defs
     id="defs13096" />
  <metadata
     id="metadata13099">
    <rdf:RDF>
      <cc:Work
         rdf:about="">
        <dc:format>image/svg+xml</dc:format>
        <dc:type
           rdf:resource="http://purl.org/dc/dcmitype/StillImage" />
        <dc:title />
      </cc:Work>
    </rdf:RDF>
  </metadata>
  <path
     style="color:#000000;fill:#069bf2;fill-opacity:1;fill-rule:nonzero;stroke:none;stroke-width:2.28571415000000000;marker:none;visibility:visible;display:inline;overflow:visible;enable-background:accumulate"
     d="M 0 4 L 0 34 L 0 62 L 2 64 L 32 64 L 62 64 L 64 62 L 64 34 L 64 4 L 32 4 L 0 4 z "
     id="path6498" />
  <path
     style="color:#000000;fill:#38ceff;fill-opacity:1;fill-rule:nonzero;stroke:none;marker:none;visibility:visible;display:inline;overflow:visible;enable-background:accumulate;stroke-width:2.28571415000000000"
     d="M 2 0 L 0 1 L 0 4 L 32 4 L 64 4 L 64 1 L 62 0 L 32 0 L 2 0 z "
     id="path6502" />
  <path
     style="fill:#5bd7ff;fill-opacity:1;fill-rule:nonzero"
     d="M 0,3 0,6 2,4 z"
     id="path4298"
     inkscape:connector-curvature="0"
     sodipodi:nodetypes="cccc" />
  <path
     d="M 64,6 62,4 64,3 z"
     id="path3028"
     style="fill:#1eb5fc;fill-opacity:1"
     inkscape:connector-curvature="0" />
  <g
     id="g3043"
     inkscape:export-filename="folder.png"
     inkscape:export-xdpi="90"
     inkscape:export-ydpi="90"
     transform="translate(-0.62500009,0.082283)" />
  <g
     id="scalable"
     transform="matrix(1.0385892,0,0,1.0385892,1214.7222,1878.8121)"
     inkscape:label="#g3701"
     style="fill:#ffffff" />
  <path
     d="m 39,34 a 7,7 0 1 1 -14,0 7,7 0 1 1 14,0 z"
     sodipodi:ry="7"
     sodipodi:rx="7"
     sodipodi:cy="34"
     sodipodi:cx="32"
     id="path3010"
     style="color:#000000;fill:none;stroke:#eff4f7;stroke-width:2.33333324999999991;marker:none;visibility:visible;display:inline;overflow:visible;enable-background:accumulate;stroke-opacity:1"
     sodipodi:type="arc"
     transform="matrix(0.85714286,0,0,0.85714286,4.5714285,4.8571428)" />
  <path
     sodipodi:open="true"
     sodipodi:end="3.403392"
     sodipodi:start="2.8797933"
     sodipodi:type="arc"
     style="color:#000000;fill:none;stroke:#eff4f7;stroke-width:1.07692312999999995;stroke-opacity:1;marker:none;visibility:visible;display:inline;overflow:visible;enable-background:accumulate"
     id="path3018"
     sodipodi:cx="32"
     sodipodi:cy="34"
     sodipodi:rx="7.5384617"
     sodipodi:ry="7.5384617"
     d="m 24.718405,35.951097 a 7.5384617,7.5384617 0 0 1 0,-3.902194"
     transform="matrix(1.8571429,0,0,1.8571429,-27.428572,-29.142857)" />
  <path
     transform="matrix(1.8571429,0,0,1.8571429,-27.428572,-29.142857)"
     d="m 26.669502,28.669502 a 7.5384622,7.5384622 0 1 1 0,10.660996"
     sodipodi:ry="7.5384622"
     sodipodi:rx="7.5384622"
     sodipodi:cy="34"
     sodipodi:cx="32"
     id="path3012"
     style="color:#000000;fill:none;stroke:#eff4f7;stroke-width:1.07692312999999995;stroke-opacity:1;marker:none;visibility:visible;display:inline;overflow:visible;enable-background:accumulate"
     sodipodi:type="arc"
     sodipodi:start="3.9269908"
     sodipodi:end="8.6393798"
     sodipodi:open="true" />
  <path
     sodipodi:type="arc"
     style="color:#000000;fill:none;stroke:#eff4f7;stroke-width:0.70000010999999995;stroke-opacity:1;marker:none;visibility:visible;display:inline;overflow:visible;enable-background:accumulate"
     id="path3016"
     sodipodi:cx="32"
     sodipodi:cy="34"
     sodipodi:rx="7.7000008"
     sodipodi:ry="7.7000008"
     d="m 33.992907,26.56237 a 7.7000008,7.7000008 0 0 1 3.451816,1.992907"
     transform="matrix(2.8571427,0,0,2.8571427,-59.428567,-63.142851)"
     sodipodi:start="4.9741884"
     sodipodi:end="5.4977871"
     sodipodi:open="true" />
  <path
     sodipodi:open="true"
     sodipodi:end="1.3089969"
     sodipodi:start="0.78539816"
     transform="matrix(2.8571427,0,0,2.8571427,-59.428567,-63.142851)"
     d="M 37.444723,39.444723 A 7.7000008,7.7000008 0 0 1 33.992907,41.43763"
     sodipodi:ry="7.7000008"
     sodipodi:rx="7.7000008"
     sodipodi:cy="34"
     sodipodi:cx="32"
     id="path3014"
     style="color:#000000;fill:none;stroke:#eff4f7;stroke-width:0.70000010999999995;stroke-opacity:1;marker:none;visibility:visible;display:inline;overflow:visible;enable-background:accumulate"
     sodipodi:type="arc" />
  <path
     sodipodi:type="arc"
     style="color:#000000;fill:none;stroke:#eff4f7;stroke-width:0.70000010999999995;stroke-opacity:1;marker:none;visibility:visible;display:inline;overflow:visible;enable-background:accumulate"
     id="path2997"
     sodipodi:cx="32"
     sodipodi:cy="34"
     sodipodi:rx="7.7000003"
     sodipodi:ry="7.7000003"
     d="m 24.562371,35.992906 a 7.7000003,7.7000003 0 0 1 0,-3.985812"
     transform="matrix(2.8571427,0,0,2.8571427,-59.428567,-63.142851)"
     sodipodi:start="2.8797933"
     sodipodi:end="3.403392"
     sodipodi:open="true" />
</svg>

<?xml version="1.0" encoding="UTF-8"?>
<!-- Created with Inkscape (http://www.inkscape.org/) -->
<svg width="64" height="64" version="1.1" xmlns="http://www.w3.org/2000/svg" xmlns:cc="http://creativecommons.org/ns#" xmlns:dc="http://purl.org/dc/elements/1.1/" xmlns:rdf="http://www.w3.org/1999/02/22-rdf-syntax-ns#" xmlns:xlink="http://www.w3.org/1999/xlink">
	<defs>
		<radialGradient id="a" cx="32" cy="33.783" r="32" gradientTransform="matrix(1.1875 0 0 1.1689 -6 -5.4907)" gradientUnits="userSpaceOnUse">
			<stop stop-color="#305ed2" offset="0"/>
			<stop stop-color="#6f51c8" offset="1"/>
		</radialGradient>
	</defs>
	<metadata>
		<rdf:RDF>
			<cc:Work rdf:about="">
				<dc:format>image/svg+xml</dc:format>
				<dc:type rdf:resource="http://purl.org/dc/dcmitype/StillImage"/>
				<dc:title/>
			</cc:Work>
		</rdf:RDF>
	</metadata>
	<path d="m0 1v33 28l2 2h30 30l2-2v-28-33z" color="#000000" fill="url(#a)"/>
	<path d="m2 0-2 1v1h32 32v-1l-2-1h-30z" color="#000000" fill="#afb4ff"/>
	<path d="m0 1v3l2-2z" fill="#ccd0ff"/>
	<path d="m64 4-2-2 2-1z" fill="#8e8de7"/>
	<path transform="matrix(.85714 0 0 .85714 4.5714 4.8571)" d="m39 34a7 7 0 1 1-14 0 7 7 0 1 1 14 0z" color="#000000" fill="none" stroke="#eff4f7" stroke-width="2.3333"/>
	<path transform="matrix(1.8571 0 0 1.8571 -27.429 -29.143)" d="m24.718 35.951a7.5385 7.5385 0 0 1 0-3.9022" color="#000000" fill="none" stroke="#eff4f7" stroke-width="1.0769"/>
	<path transform="matrix(1.8571 0 0 1.8571 -27.429 -29.143)" d="m26.67 28.67a7.5385 7.5385 0 1 1 0 10.661" color="#000000" fill="none" stroke="#eff4f7" stroke-width="1.0769"/>
	<path transform="matrix(2.8571 0 0 2.8571 -59.429 -63.143)" d="m33.993 26.562a7.7 7.7 0 0 1 3.4518 1.9929" color="#000000" fill="none" stroke="#eff4f7" stroke-width=".7"/>
	<path transform="matrix(2.8571 0 0 2.8571 -59.429 -63.143)" d="m37.445 39.445a7.7 7.7 0 0 1-3.4518 1.9929" color="#000000" fill="none" stroke="#eff4f7" stroke-width=".7"/>
	<path transform="matrix(2.8571 0 0 2.8571 -59.429 -63.143)" d="m24.562 35.993a7.7 7.7 0 0 1 0-3.9858" color="#000000" fill="none" stroke="#eff4f7" stroke-width=".7"/>
</svg>
